packages/icons/src/microphone-spark.svg

<svg width="24" height="24" viewBox="0 0 24 24" fill="none" xmlns="http://www.w3.org/2000/svg">
<path d="M3.38736 7.87353L1.93664 7.21791C1.84932 7.18059 1.80566 7.10795 1.80566 6.99998C1.80566 6.89201 1.84933 6.81937 1.93666 6.78206L3.38736 6.11266L4.05079 4.66193C4.08906 4.5786 4.15777 4.53693 4.25694 4.53693C4.35609 4.53693 4.43266 4.5786 4.48664 4.66193L5.14824 6.11266L6.58176 6.78206C6.67306 6.81937 6.71871 6.89201 6.71871 6.99998C6.71871 7.10795 6.67306 7.18059 6.58176 7.21791L5.14824 7.87353L4.48664 9.30706C4.43266 9.41104 4.35609 9.46303 4.25694 9.46303C4.15777 9.46303 4.08906 9.41104 4.05079 9.30706L3.38736 7.87353ZM17.7649 4.75813L17.0388 4.42008C16.9309 4.38122 16.8769 4.31024 16.8769 4.20716C16.8769 4.10406 16.9309 4.02141 17.0388 3.95923L17.7649 3.64021L18.1089 2.88911C18.1436 2.80577 18.2131 2.76411 18.3177 2.76411C18.4222 2.76411 18.5063 2.80577 18.5698 2.88911L18.8889 3.63411L19.6339 3.95923C19.7213 4.02115 19.7649 4.10339 19.7649 4.20596C19.7649 4.30852 19.7213 4.3799 19.6339 4.42008L18.8828 4.75813L18.5698 5.48423C18.5079 5.58821 18.4246 5.64021 18.3201 5.64021C18.2155 5.64021 18.1451 5.58821 18.1089 5.48423L17.7649 4.75813ZM20.1948 9.55596L19.4437 9.21791C19.3524 9.17906 19.3068 9.10808 19.3068 9.00498C19.3068 8.90188 19.3524 8.81924 19.4437 8.75706L20.1887 8.43193L20.5019 7.68693C20.5499 7.6036 20.6291 7.56193 20.7395 7.56193C20.8498 7.56193 20.9262 7.6036 20.9687 7.68693L21.3127 8.43803L22.0388 8.75706C22.1222 8.81899 22.1638 8.90123 22.1638 9.00378C22.1638 9.10635 22.1222 9.17772 22.0388 9.21791L21.3127 9.55596L20.9687 10.2821C20.9268 10.386 20.8512 10.438 20.742 10.438C20.6328 10.438 20.5527 10.386 20.5019 10.2821L20.1948 9.55596ZM12.0039 14.8065C11.1775 14.8065 10.4897 14.5125 9.94046 13.9244C9.39118 13.3363 9.11654 12.6255 9.11654 11.7918V5.52771C9.11654 4.73072 9.39413 4.05502 9.94931 3.50061C10.5045 2.94621 11.1869 2.66901 11.9966 2.66901C12.8063 2.66901 13.4909 2.94621 14.0505 3.50061C14.6101 4.05502 14.8899 4.73072 14.8899 5.52771V11.7918C14.8899 12.6255 14.6155 13.3363 14.0667 13.9244C13.5178 14.5125 12.8302 14.8065 12.0039 14.8065ZM11.9982 12.8739C12.2789 12.8739 12.5079 12.7685 12.6853 12.5576C12.8626 12.3467 12.9513 12.0914 12.9513 11.7918V5.52771C12.9513 5.26711 12.8581 5.04761 12.6718 4.86921C12.4855 4.69081 12.2623 4.60161 12.0022 4.60161C11.7422 4.60161 11.5183 4.69081 11.3307 4.86921C11.143 5.04761 11.0492 5.26711 11.0492 5.52771V11.7918C11.0492 12.0914 11.1372 12.3467 11.3132 12.5576C11.4892 12.7685 11.7176 12.8739 11.9982 12.8739ZM11.9966 22.5744C11.7385 22.5744 11.5184 22.4845 11.3364 22.3048C11.1543 22.125 11.0633 21.8986 11.0633 21.6255V19.1696C9.37342 19.0069 7.90549 18.3311 6.65949 17.1421C5.41347 15.9532 4.69082 14.5301 4.49154 12.8728C4.46617 12.5808 4.53665 12.3276 4.70296 12.1133C4.86926 11.899 5.12542 11.7918 5.47144 11.7918C5.69116 11.7918 5.88341 11.8678 6.04819 12.0198C6.21296 12.1718 6.31001 12.3581 6.33936 12.5788C6.53538 13.9701 7.16942 15.1197 8.24149 16.0277C9.31354 16.9357 10.5665 17.3897 12.0004 17.3897C13.4344 17.3897 14.6873 16.9357 15.7592 16.0277C16.8311 15.1197 17.4651 13.9701 17.6611 12.5788C17.6905 12.3581 17.7905 12.1718 17.9613 12.0198C18.1322 11.8678 18.3381 11.7918 18.579 11.7918C18.879 11.7918 19.1185 11.9022 19.2975 12.1228C19.4765 12.3435 19.547 12.5998 19.5089 12.8918C19.2716 14.5451 18.5448 15.964 17.3285 17.1486C16.1122 18.3332 14.6441 19.0069 12.9242 19.1696V21.6255C12.9242 21.8986 12.8341 22.125 12.654 22.3048C12.4739 22.4845 12.2548 22.5744 11.9966 22.5744Z" fill="black"/>
</svg>

<svg xmlns="http://www.w3.org/2000/svg" width="24" height="24" fill="none" viewBox="0 0 24 24">
  <path fill="#000" d="m3.387 7.874-1.45-.656c-.088-.037-.131-.11-.131-.218s.043-.18.13-.218l1.451-.67.664-1.45c.038-.083.107-.125.206-.125.1 0 .176.042.23.125l.661 1.45 1.434.67c.091.037.137.11.137.218s-.046.18-.137.218l-1.434.656-.661 1.433c-.054.104-.13.156-.23.156s-.168-.052-.206-.156l-.664-1.433Zm14.378-3.116-.726-.338c-.108-.039-.162-.11-.162-.213s.054-.186.162-.248l.726-.319.344-.75c.035-.084.104-.126.209-.126.104 0 .188.042.252.125l.319.745.745.325a.288.288 0 0 1 .13.247c0 .103-.043.174-.13.214l-.751.338-.313.726c-.062.104-.145.156-.25.156-.105 0-.175-.052-.211-.156l-.344-.726Zm2.43 4.798-.751-.338c-.092-.039-.137-.11-.137-.213s.045-.186.137-.248l.745-.325.313-.745c.048-.083.127-.125.238-.125.11 0 .186.042.229.125l.344.751.726.32a.292.292 0 0 1 .125.246c0 .102-.042.174-.125.214l-.726.338-.344.726c-.042.104-.118.156-.227.156-.11 0-.19-.052-.24-.156l-.307-.726Zm-8.191 5.25c-.826 0-1.514-.293-2.064-.882-.549-.588-.823-1.298-.823-2.132V5.528c0-.797.277-1.473.832-2.027.556-.555 1.238-.832 2.048-.832s1.494.277 2.053.832c.56.554.84 1.23.84 2.027v6.264c0 .834-.274 1.544-.823 2.132-.55.588-1.237.883-2.063.883Zm-.006-1.932c.28 0 .51-.106.687-.316a1.15 1.15 0 0 0 .266-.766V5.528c0-.26-.093-.48-.28-.659a.934.934 0 0 0-.669-.267.94.94 0 0 0-.671.267.873.873 0 0 0-.282.659v6.264c0 .3.088.555.264.766a.85.85 0 0 0 .685.316Zm-.001 9.7a.905.905 0 0 1-.66-.27.915.915 0 0 1-.274-.678V19.17c-1.69-.163-3.158-.839-4.404-2.028s-1.968-2.612-2.167-4.27a1.046 1.046 0 0 1 .211-.759c.166-.214.422-.321.768-.321.22 0 .412.076.577.228a.9.9 0 0 1 .291.559 5.356 5.356 0 0 0 1.902 3.449c1.073.908 2.325 1.362 3.76 1.362 1.433 0 2.686-.454 3.758-1.362a5.356 5.356 0 0 0 1.902-3.45.89.89 0 0 1 .3-.558.897.897 0 0 1 .618-.228c.3 0 .54.11.718.33.18.222.25.478.212.77-.237 1.653-.964 3.072-2.18 4.257-1.217 1.184-2.685 1.858-4.405 2.02v2.456c0 .274-.09.5-.27.68-.18.18-.4.27-.657.27Z"/>
</svg>
